frontend/public/svg/interface/logout.svg

<svg width="141" height="156" viewBox="0 0 141 156" fill="none" xmlns="http://www.w3.org/2000/svg">
<g clip-path="url(#clip0)">
<path d="M40.8239 73.1949C36.8128 73.4046 32.8018 73.6066 28.791 73.8033C28.562 73.8143 28.3317 73.8202 28.1013 73.826C27.4184 73.826 26.7365 73.8817 26.0626 73.993C23.92 74.4073 22.8368 75.6119 23.0891 77.2897C23.242 78.3008 24.0981 79.9553 25.2478 80.3036C27.6004 81.057 30.0406 81.5011 32.5071 81.6241C36.8349 81.7697 41.4749 81.7503 47.1052 81.5626C62.571 81.0479 78.0361 80.5146 93.5013 79.9618C101.839 79.6698 110.177 79.3786 118.515 79.0886C119.483 79.0536 120.471 79.0614 121.72 79.0711L122.488 79.0763C121.867 79.7132 121.267 80.3262 120.688 80.9172C118.701 82.9497 116.984 84.7052 115.269 86.5332C113.642 88.268 112.021 90.0584 110.454 91.7899C109.378 92.9784 108.299 94.1649 107.217 95.3501C105.468 97.2499 103.706 99.1375 101.957 101.011L99.6348 103.498C99.5393 103.601 99.4793 103.732 99.4626 103.872C99.4458 104.012 99.4729 104.152 99.5413 104.275L100.726 106.387C100.783 106.49 100.867 106.576 100.969 106.635C101.07 106.695 101.186 106.726 101.303 106.726C101.38 106.726 101.457 106.713 101.529 106.687C101.744 106.609 101.959 106.545 102.166 106.484C102.666 106.366 103.143 106.167 103.579 105.897C115.202 97.8092 126.338 89.0408 136.93 79.6362C137.972 78.7319 138.895 77.7001 139.679 76.5641C141.406 74.0163 141.002 71.2562 138.597 69.19C137.983 68.689 137.33 68.2372 136.644 67.8404L132.828 65.479C125.119 60.7048 117.15 55.7697 109.287 50.9466C108.13 50.1343 106.818 49.5689 105.434 49.286C104.793 49.242 104.15 49.3495 103.557 49.5995C102.964 49.8495 102.437 50.2354 102.019 50.726C101.39 51.6412 101.224 53.5737 101.928 54.5181C103.146 56.1716 104.632 57.609 106.323 58.7705C109.083 60.6328 111.935 62.455 114.688 64.2163C117.052 65.7269 119.496 67.2895 121.869 68.8683C122.321 69.1699 122.807 69.4353 123.275 69.6917C124.431 70.2095 125.446 70.996 126.237 71.9857C125.473 71.9152 124.718 71.8394 123.97 71.763C121.572 71.4769 119.16 71.3196 116.744 71.2931L114.845 71.308C99.6355 71.4271 83.9077 71.5501 68.4439 71.9792C59.2329 72.2356 49.8742 72.723 40.8239 73.1949Z" fill="black"/>
<path d="M61.6949 1.97721C59.7594 1.69952 35.0923 0.253946 20.6297 0.17627C18.5839 0.283722 16.3033 0.4568 14.0981 0.624451C12.4794 0.747436 10.8787 0.869414 9.39487 0.963273C5.58453 1.20472 3.20649 3.37646 2.51745 7.24601C2.13176 9.67527 1.90312 12.1269 1.83295 14.5857C0.907144 34.3362 1.1155 54.4132 1.31679 73.8306C1.36496 78.4478 1.40798 83.0657 1.44583 87.6829C1.52067 98.0184 1.74325 108.885 2.12647 120.904C2.30131 126.376 2.5955 131.931 2.88067 137.304C3.05938 140.677 3.23809 144.05 3.3897 147.424C3.58325 151.673 5.24263 153.897 8.94648 154.857C11.04 155.321 13.1756 155.567 15.3194 155.59L16.2742 155.635C18.9194 155.764 21.9465 155.824 25.1904 155.824C39.0026 155.824 56.6807 154.8 64.7304 154.283C65.7502 154.217 66.7076 153.765 67.4056 153.017C68.1044 152.268 68.4921 151.279 68.4895 150.254C68.4869 149.228 68.094 148.243 67.3914 147.498C66.6895 146.753 65.7302 146.305 64.7097 146.245C59.3723 145.93 49.5426 145.339 43.6774 144.927C38.1871 144.538 32.5994 144.294 27.1949 144.06C24.0897 143.926 20.9845 143.792 17.8807 143.629C16.8793 143.558 15.8823 143.433 14.8942 143.255C14.56 143.201 14.2233 143.147 13.882 143.096C13.8368 142.816 13.791 142.548 13.7471 142.29C13.6096 141.576 13.5126 140.854 13.4568 140.129C13.24 136.208 12.9891 132.223 12.7471 128.369C12.1665 119.193 11.5684 109.704 11.4 100.371C11.1136 84.5539 11.142 68.4632 11.1749 52.9018C11.1844 47.915 11.1905 42.9281 11.1936 37.9405C11.1936 30.4441 11.3471 22.9977 11.4968 16.7021C11.5342 15.1246 11.7007 13.5581 11.8929 11.743C11.9704 11.0148 12.051 10.2543 12.1278 9.44457C14.3781 9.29181 19.031 9.18041 24.7923 9.04383C39.5458 8.69299 59.7516 8.21133 63.4936 6.48303C63.5811 6.44258 63.6587 6.38352 63.7211 6.30985C63.7835 6.23617 63.8292 6.15018 63.8549 6.05699C64.0321 5.57891 64.104 5.06748 64.0657 4.55884C64.0275 4.0502 63.8798 3.55593 63.6329 3.10999C63.4114 2.79112 63.1233 2.52496 62.7885 2.32931C62.4538 2.13367 62.0805 2.01324 61.6949 1.97721Z" fill="black"/>
</g>
<defs>
<clipPath id="clip0">
<rect width="140" height="156" fill="white" transform="translate(0.777344)"/>
</clipPath>
</defs>
</svg>

<svg xmlns="http://www.w3.org/2000/svg" width="141" height="156" fill="none" viewBox="0 0 141 156"><g fill="#000" clip-path="url(#a)"><path d="M40.824 73.195q-6.017.314-12.033.608-.344.015-.69.023-1.026 0-2.038.167c-2.143.414-3.226 1.619-2.974 3.297.153 1.01 1.01 2.665 2.159 3.014a28.5 28.5 0 0 0 7.26 1.32c4.327.146 8.967.126 14.597-.061q23.199-.772 46.396-1.601l25.014-.873c.968-.035 1.956-.028 3.205-.018l.768.005q-.931.955-1.8 1.841c-1.987 2.033-3.704 3.788-5.419 5.616a403 403 0 0 0-4.815 5.257 1159 1159 0 0 1-3.237 3.56c-1.749 1.9-3.511 3.788-5.26 5.661l-2.322 2.487a.665.665 0 0 0-.094.777l1.185 2.112a.655.655 0 0 0 .803.3c.215-.078.43-.142.637-.203.5-.118.977-.317 1.413-.587a360 360 0 0 0 33.351-26.26 16.4 16.4 0 0 0 2.749-3.073c1.727-2.548 1.323-5.308-1.082-7.374a15 15 0 0 0-1.953-1.35l-3.816-2.361a6494 6494 0 0 0-23.541-14.532 10.3 10.3 0 0 0-3.853-1.661 4.1 4.1 0 0 0-3.415 1.44c-.629.915-.795 2.848-.091 3.792a18.4 18.4 0 0 0 4.395 4.252c2.76 1.863 5.612 3.685 8.365 5.446a466 466 0 0 1 7.181 4.652c.452.302.938.567 1.406.824a7.95 7.95 0 0 1 2.962 2.294c-.764-.07-1.519-.147-2.267-.223a67 67 0 0 0-7.226-.47l-1.899.015c-15.21.12-30.937.242-46.401.671-9.211.257-18.57.744-27.62 1.216"/><path d="M61.695 1.977C59.759 1.7 35.092.254 20.63.177c-2.046.107-4.327.28-6.532.447-1.619.123-3.22.245-4.703.34-3.81.24-6.189 2.412-6.878 6.282a57 57 0 0 0-.684 7.34c-.926 19.75-.717 39.827-.516 59.245q.072 6.926.129 13.852c.075 10.335.297 21.202.68 33.221.175 5.472.47 11.027.755 16.4.178 3.373.357 6.746.509 10.12.193 4.249 1.853 6.473 5.556 7.433 2.094.464 4.23.71 6.373.733l.955.045c2.645.129 5.672.189 8.916.189 13.813 0 31.49-1.024 39.54-1.541a4 4 0 0 0 2.676-1.266 4.037 4.037 0 0 0-.015-5.519 4 4 0 0 0-2.681-1.253c-5.338-.315-15.167-.906-21.033-1.318-5.49-.389-11.078-.633-16.482-.867-3.105-.134-6.21-.268-9.314-.431a28 28 0 0 1-2.987-.374q-.5-.082-1.012-.159-.068-.42-.135-.806a19 19 0 0 1-.29-2.161c-.217-3.921-.468-7.906-.71-11.76-.58-9.176-1.179-18.665-1.347-27.998-.286-15.817-.258-31.908-.225-47.47q.014-7.48.019-14.96c0-7.497.153-14.943.303-21.239.037-1.577.204-3.144.396-4.959.077-.728.158-1.489.235-2.298 2.25-.153 6.903-.265 12.664-.401 14.754-.351 34.96-.833 38.702-2.561a.66.66 0 0 0 .36-.426 3.55 3.55 0 0 0-.221-2.947 2.67 2.67 0 0 0-1.938-1.133"/></g><defs><clipPath id="a"><path fill="#fff" d="M.777 0h140v156h-140z"/></clipPath></defs></svg>
